!!!COM: Palestrina, Giovanni Perluigi da
!!!OPR: Repleatur os meum laude
!!!OTL: Gloria
**kern	**kern	**kern	**kern	**kern
*Ibass	*Itenor	*Icalto	*Icalto	*Icant
!Bassus	!Tenor	!Altus 2	!Altus 1	!Cantus
*clefF4	*clefGv2	*clefG2	*clefG2	*clefG2
*k[]	*k[]	*k[]	*k[]	*k[]
*E:phr	*E:phr	*E:phr	*E:phr	*E:phr
*M4/2	*M4/2	*M4/2	*M4/2	*M4/2
=1	=1	=1	=1	=1
1r	0r	0r	1.A	0r
[1AA	.	.	.	.
.	.	.	2A	.
=2	=2	=2	=2	=2
2AA]	0r	0r	0c	1.e
2AA	.	.	.	.
2.C	.	.	.	.
.	.	.	.	2e
4D	.	.	.	.
=3	=3	=3	=3	=3
4E	0r	0r	1B	1g
4F	.	.	.	.
2G	.	.	.	.
1D	.	.	2A	1f
.	.	.	[2d	.
=4	=4	=4	=4	=4
1.A	0r	0r	2d]	2e
.	.	.	4c	2a
.	.	.	4B	.
.	.	.	4c	2a
.	.	.	4d	.
2A	.	.	4e	2a
.	.	.	4f	.
=5	=5	=5	=5	=5
4G	1.E	0r	2.g	2b
4F	.	.	.	.
4E	.	.	.	2g
4D	.	.	4f	.
1C	.	.	4e	2cc
.	.	.	4d	.
.	2E	.	[2e	[2cc
=6	=6	=6	=6	=6
1GG	1G	0r	2e]	2cc]
.	.	.	1d	1b
1D	1F	.	.	.
.	.	.	2A	[2a
=7	=7	=7	=7	=7
2r	1E	1r	1B	2a]
2E	.	.	.	4g
.	.	.	.	4f#
2E	1r	[1B	1e	2.g
2E	.	.	.	.
.	.	.	.	4a
=8	=8	=8	=8	=8
1G	1r	2B]	2.d	4b
.	.	.	.	4cc
.	.	2B	.	1dd
.	.	.	4e	.
2.D	2r	1d	[1f	.
.	2A	.	.	4cc
4E	.	.	.	4b
=9	=9	=9	=9	=9
1F	2A	1c	1f]	1a
.	2A	.	.	.
2.G	2B	1B	1d	[1g
.	2G	.	.	.
4F	.	.	.	.
=10	=10	=10	=10	=10
2E	2c	0r	1e	2g]
2C	2c	.	.	4f
.	.	.	.	4e
1D	2B	.	2.d	1f
.	[2A	.	.	.
.	.	.	4c	.
=11	=11	=11	=11	=11
1E	4A]	2r	1B	1e
.	4G#	.	.	.
.	2G#	2e	.	.
1AA	[1A	2e	2A	2r
.	.	2e	2c	2a
=12	=12	=12	=12	=12
1D	1A]	2f	2d	2a
.	.	2d	2f	2a
2r	1r	2g	1e	2b
2E	.	2g	.	2g
=13	=13	=13	=13	=13
2F	0r	2f	1A	2cc
2A	.	2.e	.	2cc
2G	.	.	2B	2b
.	.	4d	.	.
2F	.	2d	2d	[2a
=14	=14	=14	=14	=14
1E	1r	0e	2c	4a]
.	.	.	.	8g
.	.	.	.	8f#
.	.	.	2B	2g#
2r	2r	.	[1A	1a
2AA	2A	.	.	.
=15	=15	=15	=15	=15
1D	1F	0r	1A]	2r
.	.	.	.	2a
1BB-	1G	.	2r	1dd
.	.	.	2d	.
=16	=16	=16	=16	=16
[0AA	0A	0r	2f	1cc
.	.	.	2.e	.
.	.	.	.	1a
.	.	.	4d	.
.	.	.	4c	.
.	.	.	4B	.
=17	=17	=17	=17	=17
1AA]	1r	2r	1c	1e
.	.	2e	.	.
2r	2r	1c	[1A	1a
2AA	[2A	.	.	.
=18	=18	=18	=18	=18
1D	2A]	1d	1A]	1f
.	2F	.	.	.
2.C	2G	[1e	2r	1e
.	2G	.	[2e	.
4C	.	.	.	.
=19	=19	=19	=19	=19
2AA	1A	1e]	2e]	2r
2.A	.	.	2c	2e
.	1D	1r	2d	1a
4G	.	.	.	.
2F	.	.	2d	.
=20	=20	=20	=20	=20
1E	0r	2r	2.e	2.g
.	.	1e	.	.
.	.	.	4d	4g
1r	.	.	4c	2e
.	.	.	4B	.
.	.	2c	2A	[2a
=21	=21	=21	=21	=21
1r	1r	2d	1B	4a]
.	.	.	.	8g
.	.	.	.	8f#
.	.	2d	.	2g#
1AA	2r	1e	2A	1a
.	[2A	.	2e	.
=22	=22	=22	=22	=22
1D	2A]	1A	1f	2r
.	2F	.	.	2a
2BB-	1G	1r	2.d	1dd
2BB-	.	.	.	.
.	.	.	4e	.
=23	=23	=23	=23	=23
1AA	2.A	0r	2f	2.cc
.	.	.	2.e	.
.	4G	.	.	4b
1r	2F	.	.	2a
.	.	.	4d	.
.	2G	.	[2d	2b
=24	=24	=24	=24	=24
1AA	1E	2r	2d]	1a
.	.	1e	4c	.
.	.	.	4B	.
1A	1r	.	2.c	2r
.	.	2c	.	2e
.	.	.	4B	.
=25	=25	=25	=25	=25
2F	0r	1d	4A	1a
.	.	.	4G	.
2F	.	.	2A	.
1E	.	2.e	2B	2.g
.	.	.	2G	.
.	.	4d	.	4f
=26	=26	=26	=26	=26
0r	2r	2c	1A	2e
.	2D	2d	.	1a
.	2E	1B	1r	.
.	[2G	.	.	2g
=27	=27	=27	=27	=27
1D	2G]	0r	1d	1a
.	2F#	.	.	.
2E	2.G	.	2.B	1r
[2G	.	.	.	.
.	4A	.	4c	.
=28	=28	=28	=28	=28
4G]	2B	1r	2d	0r
4F	.	.	.	.
4E	2.c	.	2e	.
4D	.	.	.	.
2C	.	2r	2e	.
.	4B	.	.	.
2D	[2A	2A	2f	.
=29	=29	=29	=29	=29
1BB	2A]	2B	1d	2r
.	2G#	1d	.	2d
1AA	[1A	.	2r	2f
.	.	2c#	[2A	2e
=30	=30	=30	=30	=30
1D	1A]	2.d	2A]	2.f
.	.	.	2d	.
.	.	4e	.	4g
2D	1r	2f	2d	4a
.	.	.	.	4b
2C	.	[2g	[2e	2cc
=31	=31	=31	=31	=31
1E	0r	4g]	4e]	2b
.	.	4f	4d	.
.	.	1e	4c	1cc
.	.	.	4B	.
1F	.	.	2A	.
.	.	2d	2A	4b
.	.	.	.	4a
=32	=32	=32	=32	=32
2E	1r	0e	0B	2.g#
2.E	.	.	.	.
.	.	.	.	4a
.	2r	.	.	[1b
4E	.	.	.	.
2E	[2E	.	.	.
=33	=33	=33	=33	=33
2.G	4E]	0r	2r	1b]
.	4E	.	.	.
.	2E	.	2.B	.
4F	.	.	.	.
2E	1G	.	.	1r
.	.	.	4B	.
2E	.	.	2B	.
=34	=34	=34	=34	=34
1D	2F	0r	2d	1r
.	2F	.	2A	.
4AA	1A	.	1c	2r
4BB	.	.	.	.
4C	.	.	.	[2e
4D	.	.	.	.
=35	=35	=35	=35	=35
0E	1G	2r	1B	4e]
.	.	.	.	4e
.	.	2.B	.	2e
.	2r	.	1e	1g
.	.	4B	.	.
.	2G	2B	.	.
=36	=36	=36	=36	=36
1D	1A	1d	0r	2f
.	.	.	.	2f
1F	1A	2c	.	1a
.	.	2c	.	.
=37	=37	=37	=37	=37
2E	1B	1e	1r	2g
2.G	.	.	.	2g
.	1r	1d	2r	1a
8F	.	.	.	.
8E	.	.	.	.
2F#	.	.	[2d	.
=38	=38	=38	=38	=38
1G	0r	2r	4d]	1b
.	.	.	4c	.
.	.	2d	2B	.
1C	.	1e	2A	2cc
.	.	.	[2G	[2cc
=39	=39	=39	=39	=39
1E	1G	1e	4G]	2cc]
.	.	.	4A	.
.	.	.	4B	1b
.	.	.	4c	.
2D	1A	1f	1d	.
2F	.	.	.	[2a
=40	=40	=40	=40	=40
1E	1B	0r	1e	2a]
.	.	.	.	2g#
2r	2c	.	2.A	2.a
[2A	[2c	.	.	.
.	.	.	4B	4g
=41	=41	=41	=41	=41
2A]	2c]	1r	2c	4e
.	.	.	.	4f
2G	1B	.	2.d	2g
2D	.	1d	.	1a
.	.	.	4c	.
2F	[2A	.	2A	.
=42	=42	=42	=42	=42
1E	2A]	1e	1B	1r
.	2G#	.	.	.
1D	1A	1f	1d	2r
.	.	.	.	[2dd
=43	=43	=43	=43	=43
2.G	0r	2g	2B	4dd]
.	.	.	.	4cc
.	.	1g	2d	4b
4F	.	.	.	4a
2E	.	.	2e	2g
2F	.	[2f	[2d	2a
=44	=44	=44	=44	=44
2G	0r	2f]	2d]	2b
2A	.	1e	4c	1cc
.	.	.	4B	.
1F	.	.	1A	.
.	.	2d	.	4b
.	.	.	.	4a
=45	=45	=45	=45	=45
1E	2r	1e	2r	1g#
.	2E	.	2B	.
1r	2E	1r	2B	1g#
.	2E	.	2B	.
=46	=46	=46	=46	=46
0r	2A	0r	2c	2r
.	2A	.	2c	2e
.	2G	.	2B	2e
.	2A	.	2c	2e
=47	=47	=47	=47	=47
1r	1F	1r	1d	2a
.	.	.	.	2a
2r	1E	2r	1e	2.g
2E	.	2B	.	.
.	.	.	.	4a
=48	=48	=48	=48	=48
2G	0r	2B	1d	4b
.	.	.	.	4cc
2G	.	2B	.	4dd
.	.	.	.	4b
2E	.	2e	1g	4cc
.	.	.	.	4b
2E	.	2e	.	4b
.	.	.	.	8a
.	.	.	.	8g
=49	=49	=49	=49	=49
2F	0r	2d	2f	2a
2G	.	2e	1e	1g
1A	.	1c	.	.
.	.	.	4d	2f#
.	.	.	4c	.
=50	=50	=50	=50	=50
1G	2r	1B	2d	0g
.	1E	.	1B	.
1r	.	1r	.	.
.	2E	.	2B	.
=51	=51	=51	=51	=51
0r	1A	0r	1c	2r
.	.	.	.	1e
.	2G	.	2B	.
.	2A	.	2c	2e
=52	=52	=52	=52	=52
1r	2F	1r	2d	1a
.	2F	.	2d	.
2r	1E	2r	1e	2g
[2E	.	[2B	.	4e
.	.	.	.	4f
=53	=53	=53	=53	=53
2E]	0r	2B]	2.e	4g
.	.	.	.	4a
2E	.	2B	.	2.b
.	.	.	4f	.
2E	.	1e	1g	.
.	.	.	.	4g
2C	.	.	.	[2cc
=54	=54	=54	=54	=54
1G	1r	2d	2g	2cc]
.	.	2e	2g	1b
2A	2r	2c	1e	.
2A	2A	2c	.	2a
=55	=55	=55	=55	=55
1E	2A	1B	2r	1b
.	2G	.	2e	.
2r	2.c	1r	2e	1r
2F	.	.	2A	.
.	4B	.	.	.
=56	=56	=56	=56	=56
2F	2A	0r	1.c	2r
2E	2G	.	.	2e
[1A	2F	.	.	2e
.	2F	.	2d	2d
=57	=57	=57	=57	=57
2A]	1E	2r	1e	2c
2G	.	2e	.	2B
2F	1r	2e	2r	1A
2F	.	2d	2A	.
=58	=58	=58	=58	=58
2.E	0r	2.g	2B	2e
.	.	.	1c	2e
4D	.	4f	.	.
2C	.	2e	.	[1g
2BB	.	2d	2d	.
=59	=59	=59	=59	=59
1C	0G	2c	1e	2g]
.	.	2c	.	2g
1GG	.	1B	1d	1g
=60	=60	=60	=60	=60
1D	[0A	0r	2r	1f
.	.	.	1d	.
[1AA	.	.	.	[1e
.	.	.	4c	.
.	.	.	4B	.
=61	=61	=61	=61	=61
1AA]	1A]	1r	1c	2e]
.	.	.	.	1a
[1D	[1F	[1d	1A	.
.	.	.	.	4g
.	.	.	.	4f
=62	=62	=62	=62	=62
1D]	1F]	1d]	1F	2a
.	.	.	.	2b
1C	[1E	[1e	2G	2cc
.	.	.	[2c	2g
=63	=63	=63	=63	=63
1AA	1E]	0e]	2c]	1a
.	.	.	1A	.
1E	1r	.	.	1b
.	.	.	2G#	.
=64	=64	=64	=64	=64
0AA	0r	0c	4A	2.cc
.	.	.	4B	.
.	.	.	4c	.
.	.	.	4d	4b
.	.	.	1e	1a
=65	=65	=65	=65	=65
1E	2r	0B	2e	0g#
.	2E	.	2B	.
1r	2E	.	2e	.
.	2E	.	2e	.
=66	=66	=66	=66	=66
2r	1A	0r	2.c	2r
2AA	.	.	.	2e
.	.	.	4A	.
2E	1G	.	2B	2e
2E	.	.	[2c	2e
=67	=67	=67	=67	=67
1F	1A	1r	2c]	2c
.	.	.	4B	2d
.	.	.	4A	.
1E	2.G	2r	1B	2.e
.	.	2B	.	.
.	4F	.	.	4f
=68	=68	=68	=68	=68
2r	2E	2B	0r	0g
2E	1G	2B	.	.
2E	.	1e	.	.
2E	4F	.	.	.
.	4E	.	.	.
=69	=69	=69	=69	=69
1A	1F	1d	2r	0r
.	.	.	2A	.
2G	1E	1e	2B	.
2E	.	.	2c	.
=70	=70	=70	=70	=70
2F#	0r	2.d	2A	2r
1G	.	.	1B	2d
.	.	4c	.	.
.	.	2B	.	2d
4F	.	[2d	4A	2d
4E	.	.	4G	.
=71	=71	=71	=71	=71
1F	0r	2d]	2A	1a
.	.	4c	2A	.
.	.	4B	.	.
[1E	.	1c	2e	2g
.	.	.	[2g	2e
=72	=72	=72	=72	=72
1E]	2r	1B	4g]	1g
.	.	.	4f	.
.	2G	.	1e	.
1r	2A	1r	.	1f
.	2B	.	2d	.
=73	=73	=73	=73	=73
1A	1c	0r	1e	2e
.	.	.	.	2c
2G	2B	.	2r	1d
2F	[2A	.	2A	.
=74	=74	=74	=74	=74
1E	2A]	1r	2B	1e
.	2G#	.	2c#	.
2.D	[1A	2r	1d	4f
.	.	.	.	4g
.	.	2d	.	4a
8C	.	.	.	4b
8BB	.	.	.	.
=75	=75	=75	=75	=75
1AA	1A]	2e	2.c	1.cc
.	.	2f#	.	.
.	.	.	8B	.
.	.	.	8A	.
1E	1r	1g	1G	.
.	.	.	.	2b
=76	=76	=76	=76	=76
0r	0r	2f	2r	2a
.	.	1e	2G	2g
.	.	.	2A	1f
.	.	2d	2B	.
=77	=77	=77	=77	=77
2r	1r	0e	1.c	2.e
2.C	.	.	.	.
.	.	.	.	4f
.	2r	.	.	1g
4D	.	.	.	.
2E	2G	.	2B	.
=78	=78	=78	=78	=78
2F	2A	0r	1d	1r
2G	2B	.	.	.
1A	1c	.	2f	2r
.	.	.	[2e	2c
=79	=79	=79	=79	=79
2G	2B	0r	4e]	1d
.	.	.	4d	.
2F	1A	.	1d	.
1E	.	.	.	1e
.	2G#	.	2c#	.
=80	=80	=80	=80	=80
1D	1A	2r	2d	2.f
.	.	2d	2A	.
.	.	.	.	4g
1r	1r	2e	2c	2a
.	.	2f	2d	2b
=81	=81	=81	=81	=81
2r	1r	1g	1e	2.cc
2C	.	.	.	.
.	.	.	.	8b
.	.	.	.	8a
2D	2r	2f	2d	2b
2E	2G	[2e	[2c	2cc
=82	=82	=82	=82	=82
2F	2A	2e]	2c]	2a
2G	2B	2d	2B	2g
2.C	[1c	[1e	2A	2r
.	.	.	2G	2g
4BB	.	.	.	.
=83	=83	=83	=83	=83
2AA	2c]	0e]	2r	2a
2E	2B	.	2G	2b
2AA	2A	.	2A	2cc
2E	2G#	.	2B	2b
=84	=84	=84	=84	=84
0AA	0A	[0e	0c	0a
=85	=85	=85	=85	=85
0E	0G#	0e]	0B	0b
=86	=86	=86	=86	=86
0r	0r	0r	1c	1r
.	.	.	2e	1g
.	.	.	2e	.
=87	=87	=87	=87	=87
0r	0r	0r	1f	2a
.	.	.	.	2a
.	.	.	2e	1cc
.	.	.	2c	.
=88	=88	=88	=88	=88
1r	0r	0r	2f	2a
.	.	.	2.e	2g
1C	.	.	.	1cc
.	.	.	4d	.
.	.	.	4e	.
.	.	.	4f	.
=89	=89	=89	=89	=89
2E	1G	0r	4g	2b
.	.	.	4f	.
2E	.	.	4e	1cc
.	.	.	4d	.
1F	2A	.	1c	.
.	2A	.	.	4b
.	.	.	.	4a
=90	=90	=90	=90	=90
2E	1c	0r	1e	4g
.	.	.	.	4f
2C	.	.	.	4e
.	.	.	.	4d
2c	2A	.	2c	4e
.	.	.	.	4f
2B	2G	.	2d	[2g
=91	=91	=91	=91	=91
1A	1c	1r	2e	2g]
.	.	.	2c	2f#
1G	1B	1d	2r	[1g
.	.	.	[2G	.
=92	=92	=92	=92	=92
1C	0r	2e	2G]	1g]
.	.	2e	2c	.
1E	.	1g	2B	1r
.	.	.	4G	.
.	.	.	4A	.
=93	=93	=93	=93	=93
2.G	1r	2e	4B	0r
.	.	.	4c	.
.	.	2d	1d	.
4F	.	.	.	.
1E	1G	1g	.	.
.	.	.	2c#	.
=94	=94	=94	=94	=94
1D	1A	1f#	1d	2r
.	.	.	.	2d
[1C	2.c	1r	2G	1e
.	.	.	4c	.
.	4B	.	4d	.
=95	=95	=95	=95	=95
2C]	2A	0r	4e	2c
.	.	.	4f	.
2BB	2G	.	1g	2d
1AA	1c	.	.	2e
.	.	.	2f#	2c
=96	=96	=96	=96	=96
1GG	1B	1d	1g	2r
.	.	.	.	2g
2.C	1r	1e	2r	2g
.	.	.	[2c	2g
4D	.	.	.	.
=97	=97	=97	=97	=97
4E	0r	2.g	2c]	2e
4F	.	.	.	.
1G	.	.	2B	4d
.	.	4f	.	4c
.	.	2e	2G	4B
.	.	.	.	4c
2F	.	2d	2A	[2d
=98	=98	=98	=98	=98
1E	1G	1g	2B	2d]
.	.	.	2G	2c#
1D	1A	1f#	1r	[1d
=99	=99	=99	=99	=99
1G	1B	0r	2r	1d]
.	.	.	2d	.
2C	1G	.	1e	1r
2E	.	.	.	.
=100	=100	=100	=100	=100
0D	1.A	1r	2f	0r
.	.	.	2d	.
.	.	1d	2f	.
.	2A	.	2f	.
=101	=101	=101	=101	=101
1C	0c	1e	4e	1g
.	.	.	4d	.
.	.	.	4c	.
.	.	.	4B	.
1F	.	1f	4A	1a
.	.	.	4G	.
.	.	.	2A	.
=102	=102	=102	=102	=102
1G	1B	1d	1G	2b
.	.	.	.	2g
[1C	1r	[1e	2r	2g
.	.	.	[2c	2g
=103	=103	=103	=103	=103
1C]	1.G	2e]	4c]	1cc
.	.	.	4d	.
.	.	2e	1e	.
[1GG	.	[1g	.	2b
.	2G	.	2d	[2b
=104	=104	=104	=104	=104
2GG]	1G	1g]	1d	2b]
2GG	.	.	.	2b
2D	[1A	1f#	2.d	1a
[2D	.	.	.	.
.	.	.	4e	.
=105	=105	=105	=105	=105
2D]	2A]	1r	2f	2d
2C#	2A	.	2e	2e
2D	2A	[1d	2d	2f#
2D	2A	.	2A	2f#
=106	=106	=106	=106	=106
1GG	2G	2d]	1B	1g
.	2G	2d	.	.
1D	1F	1d	2A	1a
.	.	.	[2A	.
=107	=107	=107	=107	=107
2.AA	0E	1.e	4A]	1.cc
.	.	.	4B	.
.	.	.	4c	.
4BB	.	.	4d	.
4C	.	.	4e	.
4D	.	.	4f	.
4E	.	2e	[2g	4b
4F	.	.	.	4a
=108	=108	=108	=108	=108
2G	0r	2e	2g]	2b
2A	.	2e	2c	2cc
1D	.	2d	1f	2a
.	.	2d	.	[2b
=109	=109	=109	=109	=109
[0E	0r	1c	1e	2b]
.	.	.	.	1a
.	.	[1B	2r	.
.	.	.	[2e	4g
.	.	.	.	4f#
=110	=110	=110	=110	=110
1E]	0r	1B]	4e]	2.g
.	.	.	4d	.
.	.	.	2B	.
.	.	.	.	4f
2r	.	1r	2.c	4e
.	.	.	.	4c
2C	.	.	.	[2g
.	.	.	4B	.
=111	=111	=111	=111	=111
1D	1r	0r	1A	2g]
.	.	.	.	2f#
2E	2r	.	1G	4g
.	.	.	.	4f
2C	2G	.	.	4e
.	.	.	.	4d
=112	=112	=112	=112	=112
2F	1A	0r	2r	1c
2A	.	.	2c	.
1G	1B	.	1d	2r
.	.	.	.	2g
=113	=113	=113	=113	=113
2r	1c	0r	2e	1g
2C	.	.	2e	.
2F	2c	.	2f	1a
2A	2c	.	[2e	.
=114	=114	=114	=114	=114
2G	2B	2r	4e]	0r
.	.	.	4d	.
2F	2.A	2d	1d	.
1E	.	1e	.	.
.	4G	.	.	.
.	2G	.	2c#	.
=115	=115	=115	=115	=115
1D	1A	1f#	0d	1a
1G	1r	1g	.	2b
.	.	.	.	2b
=116	=116	=116	=116	=116
1E	1G	2g	1e	2cc
.	.	2g	.	2b
1AA	1A	2f	2r	2.a
.	.	[2e	2E	.
.	.	.	.	4g
=117	=117	=117	=117	=117
1D	1B	4e]	1F	1f
.	.	4d	.	.
.	.	2d	.	.
2.C	[1c	1e	1G	2r
.	.	.	.	2e
4BB	.	.	.	.
=118	=118	=118	=118	=118
2AA	2c]	1r	2A	2f
2GG	2.B	.	2.d	2g
2D	.	1d	.	1a
.	4A	.	4c	.
2F	[2A	.	2A	.
=119	=119	=119	=119	=119
1E	2A]	1e	1B	1r
.	2G#	.	.	.
1D	1A	1f#	2.d	2r
.	.	.	.	2a
.	.	.	4c	.
=120	=120	=120	=120	=120
2G	1r	1.g	2B	2b
4F	.	.	4A	2cc
4E	.	.	4G	.
2.D	2r	.	[1A	1dd
.	[2A	[2f	.	.
4E	.	.	.	.
=121	=121	=121	=121	=121
2F	2A]	4f]	2A]	2cc
.	.	4e	.	.
2G	2B	1e	2G	2.b
1A	2c	.	1F	.
.	.	.	.	4a
.	2A	2d	.	[2a
=122	=122	=122	=122	=122
1r	1B	1e	1E	2a]
.	.	.	.	2g
1D	1A	1r	1r	4f
.	.	.	.	4e
.	.	.	.	4f
.	.	.	.	4g
=123	=123	=123	=123	=123
2F	0r	2r	1A	4a
.	.	.	.	4b
2A	.	1e	.	2cc
2G	.	.	2B	2b
2F	.	2f	[2d	2a
=124	=124	=124	=124	=124
1E	1r	2g	2d]	1g
.	.	2e	2c#	.
1D	2r	1f	2d	1r
.	2D	.	2A	.
=125	=125	=125	=125	=125
1C	2E	1e	1c	1r
.	1G	.	.	.
1D	.	1r	2.A	2r
.	2F#	.	.	2d
.	.	.	4B	.
=126	=126	=126	=126	=126
2.C	2.G	0r	1c	2e
.	.	.	.	1g
8BB	4A	.	.	.
8AA	.	.	.	.
2GG	2B	.	2B	.
2AA	[2c	.	2A	2f
=127	=127	=127	=127	=127
2C	4c]	2r	1A	2e
.	4B	.	.	.
2D	1A	2A	.	2f
1BB	.	2B	1r	2.d
.	2G#	[2d	.	.
.	.	.	.	4e
=128	=128	=128	=128	=128
2AA	1A	2d]	2r	2f
2A	.	2c#	2A	2e
2.G	1r	2.d	2B	1g
.	.	.	[2d	.
8F	.	4e	.	.
8E	.	.	.	.
=129	=129	=129	=129	=129
2D	0r	2f	2d]	1r
2E	.	2.g	2c	.
2G	.	.	2B	1e
.	.	4f	.	.
2A	.	[2e	2c	.
=130	=130	=130	=130	=130
1F	1r	2e]	1A	2f
.	.	2d	.	2.a
1E	2r	1e	1B	.
.	.	.	.	8g
.	.	.	.	8f#
.	2E	.	.	2g#
=131	=131	=131	=131	=131
2r	2F	0r	1A	2a
2D	2.A	.	.	2f
1E	.	.	2r	[1e
.	8G	.	.	.
.	8F#	.	.	.
.	2G#	.	2B	.
=132	=132	=132	=132	=132
2AA	2A	0r	2c	1e]
2E	2G	.	2.e	.
2F	1F	.	.	1a
.	.	.	4d	.
[2A	.	.	4d	.
.	.	.	8c	.
.	.	.	8d	.
=133	=133	=133	=133	=133
4A]	1E	2r	2e	2cc
8G	.	.	.	.
8F#	.	.	.	.
2G#	.	2B	2.e	2b
2A	1r	2c	.	2.e
.	.	.	4d	.
2A	.	[2e	[2c	.
.	.	.	.	4f
=134	=134	=134	=134	=134
1G	0r	4e]	4c]	1.g
.	.	8d	8B	.
.	.	8c	8A	.
.	.	2d	2B	.
1r	.	2e	2c	.
.	.	2d	2B	2g
=135	=135	=135	=135	=135
2r	1r	1c	2.e	2g
2C	.	.	.	2f
.	.	.	4f	.
2E	1G	1B	1g	2e
[2G	.	.	.	2d
=136	=136	=136	=136	=136
2G]	2A	0r	1r	2.c
2F	1c	.	.	.
.	.	.	.	4d
2G	.	.	2r	2e
2G	2B	.	2d	2d
=137	=137	=137	=137	=137
1C	2.c	0r	2e	2r
.	.	.	1g	2g
.	4B	.	.	.
1r	2A	.	.	2a
.	2A	.	2f#	[2cc
=138	=138	=138	=138	=138
0r	1G	1d	2g	2cc]
.	.	.	2g	2b
.	1r	2e	1c	2.cc
.	.	[2g	.	.
.	.	.	.	4b
=139	=139	=139	=139	=139
1D	1r	2g]	2.d	2a
.	.	2f#	.	2a
.	.	.	4c	.
[1E	[1G	2.g	[1B	1g
.	.	4f	.	.
=140	=140	=140	=140	=140
1E]	1G]	2e	1B]	1r
.	.	2e	.	.
1G	1B	1d	2r	[1g
.	.	.	2d	.
=141	=141	=141	=141	=141
2.C	1.c	0r	1e	2g]
.	.	.	.	2g
4D	.	.	.	.
2.E	.	.	[1g	1e
.	4B	.	.	.
4F	4A	.	.	.
=142	=142	=142	=142	=142
1G	1B	0d	2g]	1d
.	.	.	4f	.
.	.	.	4e	.
[1D	[1A	.	1f	[1a
=143	=143	=143	=143	=143
1D]	1A]	1f	2d	1a]
.	.	.	1d	.
1GG	1r	[1g	.	1b-
.	.	.	2d	.
=144	=144	=144	=144	=144
0D	1r	2g]	2.d	1a
.	.	4f	.	.
.	.	4e	8c	.
.	.	.	8B	.
.	1F	1f	2A	1d
.	.	.	2B	.
=145	=145	=145	=145	=145
2C	1A	0e	1c	2r
2C	.	.	.	2e
1E	1G	.	2r	1g
.	.	.	2B	.
=146	=146	=146	=146	=146
1D	2B-	0r	1d	1f
.	2B-	.	.	.
[1F	2A	.	2c	[1a
.	4F	.	[2A	.
.	4G	.	.	.
=147	=147	=147	=147	=147
2F]	4A	1c	4A]	2a]
.	4G	.	4B	.
2F	4A	.	1c	2a
.	4B	.	.	.
4C	1c	1e	.	[1g
4D	.	.	.	.
4E	.	.	[2G	.
4F	.	.	.	.
=148	=148	=148	=148	=148
1G	1B	1d	4G]	1g]
.	.	.	4A	.
.	.	.	4B	.
.	.	.	4c	.
4D	[1A	2f	2d	2r
4E	.	.	.	.
4F	.	2f	[2c	2a
4G	.	.	.	.
=149	=149	=149	=149	=149
2A	1A]	2e	4c]	1cc
.	.	.	4d	.
2AA	.	4c	4e	.
.	.	4d	4f	.
[1E	1r	4e	2.g	2b
.	.	4d	.	.
.	.	4e	.	[2b
.	.	4f	4f	.
=150	=150	=150	=150	=150
1E]	1G	1g	4e	2b]
.	.	.	4d	.
.	.	.	1e	2b
1r	2A	1f	.	2cc
.	2B	.	2d	4b
.	.	.	.	4a
=151	=151	=151	=151	=151
2r	1c	0e	2e	1g
2C	.	.	2g	.
1E	1B	.	4g	2r
.	.	.	4f	.
.	.	.	4e	2g
.	.	.	4d	.
=152	=152	=152	=152	=152
1F	1A	1r	2c	1a
.	.	.	2d	.
1G	1r	1d	2B	1b
.	.	.	2G	.
=153	=153	=153	=153	=153
2C	0r	2e	2r	1cc
2F	.	2f	2A	.
1E	.	1g	2B	1r
.	.	.	2c	.
=154	=154	=154	=154	=154
1D	1r	1f	2.d	2r
.	.	.	.	2a
.	.	.	4c	.
2E	2r	1e	2B	2g
4AA	[2A	.	[2e	[2cc
4BB	.	.	.	.
=155	=155	=155	=155	=155
4C	2A]	0r	2e]	2cc]
4D	.	.	.	.
2E	2G	.	2e	2b
1AA	2.c	.	2.e	2.a
.	4B	.	4d	4g
=156	=156	=156	=156	=156
1r	2A	0r	2c	4f
.	.	.	.	4e
.	2G	.	2B	1e
2r	1F	.	1A	.
[2A	.	.	.	2d
=157	=157	=157	=157	=157
2A]	1E	2r	1B	2e
2G	.	1e	.	2B
1F	1r	.	1A	2c
.	.	2d	.	2d
=158	=158	=158	=158	=158
2.E	0r	2.g	2r	1e
.	.	.	2B	.
4D	.	4f	.	.
2C	.	2e	2c	2r
2BB	.	2d	2d	2b
=159	=159	=159	=159	=159
2AA	0r	1c	1e	2cc
1A	.	.	.	2a
.	.	1B	1e	1b
2G	.	.	.	.
=160	=160	=160	=160	=160
2.F	2.D	0r	0A	2.a
4E	4E	.	.	4g
2D	4F	.	.	2f
.	4G	.	.	.
2C	[2A	.	.	2e
=161	=161	=161	=161	=161
1BB	2A]	0r	2r	2.d
.	2G#	.	1d	.
.	.	.	.	4e
1AA	2A	.	.	2f
.	[2A	.	2c	4e
.	.	.	.	4d
=162	=162	=162	=162	=162
1E	2A]	1r	2B	1e
.	2G	.	1e	.
2r	2.c	2.A	.	1a
[2F	.	.	2c	.
.	4B	4B	.	.
=163	=163	=163	=163	=163
2F]	2A	4c	2A	1r
.	.	4d	.	.
2E	2G	1e	2B	.
1A	1F	.	2c	2r
.	.	2d	2A	[2a
=164	=164	=164	=164	=164
2AA	[0E	[0e	2.c	2a]
2.C	.	.	.	2g
.	.	.	8B	.
.	.	.	8A	.
.	.	.	2G	[1cc
4BB	.	.	.	.
[2AA	.	.	[2A	.
=165	=165	=165	=165	=165
2AA]	0E]	0e]	2A]	2cc]
2GG#	.	.	2B	2b
1AA	.	.	1c	1a
=166	=166	=166	=166	=166
[0E	[0E	[0e	[0B	[0g#
=167	=167	=167	=167	=167
0E]	0E]	0e]	0B]	0g#]
==	==	==	==	==
*-	*-	*-	*-	*-
!!!CDT: 1525/^1526/-1594/2/2
!!!OCY: Italia
!!!AGN: Mass (Canonic)
!!!AST: renaissance, vocal
!!!ASW: Motet 1538 (Jacquet)
!!!PWK: Masses, Book 3
!!!RNB: Cadence finals: A,G,C
!!!YOR: Le Opere Complete, v. 6, p. 136
!!!YOO: Rome, Italy: Fratelli Scalera
!!!END: 1992//
!!!EED: John Miller
!!!YEC: Copyright 2000, John Miller
!!!YEN: United States of America
!!!YEM: Rights to all derivative electronic formats reserved.
!!!YEM: Refer to licensing agreement for further details.
!!!YEM: This file must be accompanied by the licensing agreement.
!!!YEM: A copy of the licensing agreement may be found at http://www.music-cog.ohio-state.edu/HumdrumDatabases/Palestrina/license.txt
!!!EMD: converted to Humdrum by Bret Aarden
